X:1
T:Préludes - Book I - I
T:Danseuses de Delphes
T:Claude Debussy
%%score { ( 1 2 5 7 ) | ( 3 4 6 8 ) }
L:1/8
Q:1/4=44
M:3/4
K:Bb
V:1 treble nm="Piano"
V:2 treble 
V:5 treble 
V:7 treble 
V:3 bass 
V:4 bass 
V:6 bass 
V:8 bass 
V:1
!p!"^Lent et grave ( \n )\n         doux et soutenu\n" (.[DF]2 .[EG]2) .[FA]2 | %1
 (.[DF]2 .[EG]2) .[FA]2 |!p!!<(!(x>.A)!p!!<(!x>.A!p!!<(!x>.A!<)!!<)! | %3
"^(""^)"(x>!<)!"^4"B)!pp!"^4" F [fbf'][dad'](.[Ada].[FAdf]).[GBdg] | %4
"^(""^4""^3"!>(! [=EGc=e]"^)"[DFAd][DFBd][CEGc] [FAcf]2!>)! || z ([FBdf]2 [G=Beg]2) [A^cfa] | %6
 z ([FBdf]2 [G=Beg]2) [A^cfa] | z [fgg']2 [fgg']2 [fgg'] | %8
"^4""^4""^(""^)"!<(! z [fgg']2 ([fbf'][dad'])[Ada][FAdf][GBdg]!<)! | %9
!>(! ([=EGc=e][DFAd]) [DFBd][CEGc] [FAcf]4!>)! || %10
"^(""^)""^doux mais en dehors""^3""^4" ([gg']2 [ff']>)(([dd'] [cc']>))"^͜""^͜"([Bb] | %11
"^͡""^͡" [Gg]>)(([Ff] [Dd]4)) | ([c'c'']2 [bb']>)(([gg'] [ff']>))(([ee'] | [ec']>))(([Bb] [Gg]4)) | %14
 z .[=ec'=e']2 .[^ca^c']2 .[^d=b^d'] ||"^)""^(""^4""^4" z .[=ec'=e'] z .[gaa']3 z .[cc'] || %16
"^(""^)""^3""^4" z .[gaa']2 .[=cdc']2 z | z!pp! !tenuto![_ac'e'_a']- [ac'e'a']4 | %18
 z"^piú"!pp! [gbd'g']- [gbd'g']4 |!ppp! z !tenuto![fac'f']- [fac'f']4 | %20
!p! (!breath!!fermata!D2 F2) C2 | E4 G2 |"^piú"!p! ([Dd]2 [Ff]2) [=Aa]2 | %23
 [^c^c']2 [=e=e']2!p! [^g^g']2 | x4!p! z!pp!"^͡""^͡""^͡""^͡" .[fa^c'f'] | x4 z!pp! .[fa^c'f'] | %26
 z2 z2!ppp! .[ff']2 | z2!>(! z2 .[ff']2!>)! |[K:bass]!f!!>(! !tenuto![D,F,B,D]6!>)! | %29
!pp! !tenuto![D,F,B,D]6- | !fermata![D,F,B,D]4 z2 |] %31
V:2
 (B,2 =B,>)C C2 | (B,2 =B,>)C C>F | D2 (D2 E2) | !tenuto!=E2 z2 x4 | x6 || B,2 =B,x ^C2 | %6
 B,2 =B,x ^Cx | [DG]x [DG]x [EG]x | [=EG]x!mf! F [DFBd][DFA] x x2 | x8 || %10
 z [CEGc]2 [DFAd]2"^͡""^͡""^͜""^͜" [EGBe] | [EGBe][FAcf][GBdg][Ac=ea][Bdfb][c_egc'] | %12
 z .[_A,CE_A]2 .[B,DFB]2 .[CEGc]- | [CEGc].[_DF_A_d].[GBe]!<(!.[Acf].[G=B=dg].[_B_dfb]!<)! | %14
 ([G,G]2 [=E,=E]>)[F,F] [^F,^F]>[=B,=B] || ([G,G]>[Cc]) ([CDcd]3 [=E=e])[G,G]>[Cc] || %16
 x [GA]2 [CD]2 x | x6 | ([Cc]3 [Dd]2)!pp! [Ff] | !tenuto![Cc]6 | x6 | x6 | %22
 z"^dim." [FB]2 [_A_d]2 [cf] | z .[=ea]2 .[g=c']2!>(! .[=b=e']!>)! | %24
 z!p! .[FBdf]!<(!([G=Beg]>[_Ac=e_a]) [=A^cf=a]2!<)! | %25
 z .[FBdf]!<(!([G=Beg]>[_Ac=e_a]) [=A^cf=a]2!<)! | z [GAa]- [GAa]4 | z!pp! !tenuto![GAa]- [GAa]4 | %28
[K:bass] x6 | x6 | x6 |] %31
V:3
 F,2 G,2 A,2 | F,2 G,2 A,2 | [F,G,]2 [F,G,]2 [F,G,]2 | [F,G,]2 [F,B,]2 x4 | %4
 [C,G,C][D,A,][B,,F,B,][C,G,] [F,,C,A,]2 ||!p! x [F,B,D]2 [G,=B,E]2 [A,^CF] | %6
 x [F,B,D]2 [G,=B,E]2 [A,^CF] | x6 | [xx]8 | ([C,G,C][D,A,]) [B,,F,B,][C,G,] [F,,C,A,]4 || %10
!pp! z [C,E,G,]2 [D,F,A,]2 [E,G,B,]- | [E,G,B,][F,A,C][G,B,D][A,C=E][B,DF][C_EG] | %12
 z .[_A,,C,E,]2 .[B,,D,F,]2 .[C,E,G,]- | %13
 [C,E,G,].[_D,F,_A,]!<(! .[E,G,B,E].[F,A,CF] .[G,=B,D]!mf!.[_B,_DF]!<)! | %14
 (G,,2 =E,,>)F,, ^F,,>=B,, ||!<(! (G,,>!f!C,) ([C,D,]3 =E,)G,,>C,!<)! || %16
 ([C,D,]>.=E,)!>(! [G,,A,,]2 (!tenuto!C,2-!>)! | C,3)"^dim." D,2 F, | (C,3 D,2) F, | %19
!ppp! !tenuto!C,6 | (D,2 F,2) C,2 | E,4 =G,2 | D,2 F,2 =A,2 |[K:treble]!<(! ^C2 =E2 ^G2!<)! | %24
[K:bass] x6 | x6 | z!pp! !tenuto![G,^CF]- [G,CF]4 | z !tenuto![G,^CF]- [G,CF]4 | x6 | %29
 [B,,,F,,B,,]6- | !fermata![B,,,F,,B,,]4 z2 |] %31
V:4
 (.[B,,,B,,]2 .[A,,,A,,]2) .[F,,,F,,]2 | (.[B,,,B,,]2 .[A,,,A,,]2) .[F,,,F,,]2 | %2
 (.[B,,,B,,]2 .[=B,,,=B,,]2) .[C,,C,]2 | (.[^C,,^C,]2 .[D,,D,]4) x2 | x6 || %5
 (B,,,2 [A,,,A,,]2) [F,,,F,,]2 | (B,,,2 [A,,,A,,]2) [F,,,F,,]2 | %7
 ([B,,,B,,]2 [=B,,,=B,,]2) [C,,C,]2 | ([C,,C,]2 [D,,D,]4) x2 | x8 || [F,,,F,,]6- | [F,,,F,,]6 | %12
 [F,,,F,,]6- | [F,,,F,,]6 | z .[C,,C,]2 .[A,,,A,,]2 .[=B,,,=B,,] || z C,, F,,4 [=E,,A,,]2 || %16
 F,,2 =E,,2 x2 | z!pp! !tenuto![_A,,,E,,_A,,]- [A,,,E,,A,,]4 | %18
 z"^piú"!pp! [G,,,D,,G,,]- [G,,,D,,G,,]4 | z !tenuto![F,,,C,,F,,]- [F,,,C,,F,,]4 | %20
 z .[B,,F,B,]2 .[_D,_A,_D]2 .[_A,,E,A,] | z .[_C,_G,_C]3 x .[E,B,E] | %22
 z .[B,,F,B,]2 .[_D,_A,_D]2 [F,CF] |[K:treble] z .[A,=EA]2 .[=CGc]2 .[E=B=e] | %24
[K:bass] [B,,,,B,,,]2 x x z!pp!!>(! (([F,,,F,,]!>)! | [B,,,B,,]2)) x2!p! z!pp! (([F,,,F,,] | %26
 [B,,,B,,]4))!ppp!!>(! ((.[F,,,F,,]2!>)! | [B,,,B,,]4)) .[F,,,F,,]2 | [B,,,F,,B,,]6 | x6 | %30
 .!tenuto!B,,,,2 z2 z2 |] %31
V:5
 x6 | x6 | !tenuto!G2 (!tenuto!G2 !tenuto!G2) | G2 x2 x4 | x6 || x6 | x6 | x6 | x8 | x8 || x6 | %11
 x6 | x6 | x6 | x6 || x3 [GA]2 x A, [CD] || ([CDcd]x) [G,A,G]2 (!tenuto![Cc]2- | %17
 [Cc]3) [Dd]2 [Ff] | x6 | x6 | x6 | x6 | x6 | x6 | x6 | x6 | x6 | x6 |[K:bass] x6 | x6 | x6 |] %31
V:6
 x6 | x6 | x6 | x3[I:staff -1] .[DFBd].[A,DFA][I:staff +1](.[F,A,DF].[D,A,D]).[G,B,D] | x6 || %5
 B,,2 =B,,>C, ^C,2 | B,,2 =B,,>C, ^C,>F, | ([F,G,]>A,) ([F,G,]>A,) ([F,G,]>A,) | %8
 ([F,G,]>B,) [F,B,]2 x x x2 | x8 || x6 | x6 | x6 | x6 | x6 || x8 || x6 | x6 | x6 | x6 | x6 | x6 | %22
 x6 |[K:treble] x6 |[K:bass] x6 | x6 | x6 | x6 | x6 | x6 | x6 |] %31
V:7
 x6 | x6 | x6 | x8 | x6 ||x2x>C x2 |x2x>Cx>F |x>Ax>Ax>A |x>B x2 x4 | x8 || x6 | x6 | x6 | x6 | %14
 x6 || x8 ||x>[=E=e] x4 | x6 | x6 | x6 | x6 | x6 | x6 | x6 | x6 | x6 | x6 | x6 |[K:bass] x6 | x6 | %30
 x6 |] %31
V:8
 x6 | x6 | x6 | x8 | x6 || x6 | x6 | x6 |x2x(xA,)[F,A,DF][D,F,A,D][G,B,D] | x8 || x6 | x6 | x6 | %13
 x6 | x6 || x8 || x6 | x6 | x6 | x6 | x6 | x6 | x6 |[K:treble] x6 | %24
[K:bass] z .[F,B,D]([G,=B,E]>[_A,C=E]) [=A,^CF]2 | z!p! .[F,B,D]([G,=B,E]>[_A,C=E]) [=A,^CF]2 | %26
 x6 | x6 | x6 | x6 | x6 |] %31

